X:115
T:Farewell to Nun Street
A:Lancaster
C:Andy Hornby
M:3/4
N:14.11.96
O:England
Q:1/8=248
Z:Richard Robinson 
%%Copyright:Andy Hornby
%%TUNEURL: http://www.leeds.ac.uk/music/Info/RRTuneBk/gettune/00000779.html
%%ID:00000779
K:G dorian
D2G2 A/G/F| F2G2 GA| B2A2 Gd|dc BA GF|\
D2G2 A/G/F| F2G2 GA| B/A/G c/B/A d^F\
|1 G6 :|2 G4||
|:Dd|\
d2cA c2|B4 GB| BA A^F Dc| cB BG Dd|\
d2cA c2| B4 GA| B/A/G c/B/A d^F| G4 :|
K:G
|:zD|\
DG GA AB| B2G2 dc| B2AG Ad| cB AG A2|\
DG GA AB| B2GB dc| B2AG AF|1 G4 :|2 G6 ||
|:Bd d2 BG| Ac c2 AF| GB BA AF| DF G2 BG|\
Bd dc cA| Ac c2 BG| GB BA cA| DF G4 :|
